src/assets/email-icon.svg

<?xml version="1.0" encoding="utf-8"?>
<!-- Generator: Adobe Illustrator 21.0.2, SVG Export Plug-In . SVG Version: 6.00 Build 0)  -->
<svg version="1.1" id="Layer_1" xmlns="http://www.w3.org/2000/svg" xmlns:xlink="http://www.w3.org/1999/xlink" x="0px" y="0px"
	 viewBox="0 0 100 100" style="enable-background:new 0 0 100 100;" xml:space="preserve">
<path d="M93,19H7c-1.1,0-2,0.9-2,2v58c0,0,0,0,0,0.1c0,0.1,0,0.1,0,0.2c0,0.1,0,0.1,0,0.2c0,0.1,0,0.1,0.1,0.2c0,0.1,0,0.1,0.1,0.2
	c0,0.1,0.1,0.1,0.1,0.2c0,0.1,0.1,0.1,0.1,0.2c0,0,0,0,0,0.1c0,0,0,0,0.1,0.1c0,0,0.1,0.1,0.1,0.1c0,0,0.1,0.1,0.1,0.1
	c0,0,0.1,0.1,0.2,0.1c0.1,0,0.1,0.1,0.2,0.1c0.1,0,0.1,0.1,0.2,0.1s0.1,0,0.2,0.1c0.1,0,0.1,0,0.2,0c0.1,0,0.1,0,0.2,0
	c0,0,0.1,0,0.1,0h86c0.2,0,0.3,0,0.4,0c0,0,0.1,0,0.1,0c0.1,0,0.2-0.1,0.3-0.1c0,0,0.1-0.1,0.1-0.1c0.1,0,0.2-0.1,0.2-0.2
	c0,0,0.1-0.1,0.1-0.1c0.1-0.1,0.1-0.1,0.2-0.2l0.1-0.1c0,0,0,0,0-0.1c0-0.1,0.1-0.1,0.1-0.2c0,0,0.1-0.1,0.1-0.2
	c0-0.1,0-0.1,0.1-0.2s0-0.1,0.1-0.2c0-0.1,0-0.1,0-0.2c0-0.1,0-0.1,0-0.2c0,0,0,0,0-0.1V21C95,19.9,94.1,19,93,19z M9,32.1l27,21.4
	L9,74.9V32.1z M12.8,77l26.5-21l9.5,7.5c0.4,0.3,0.8,0.4,1.2,0.4s0.9-0.1,1.2-0.4l9.5-7.5l26.5,21H12.8z M91,74.9L64,53.5l27-21.4
	V74.9z M91,27l-1.2,1L50,59.5L10.2,28L9,27v-4h82V27z"/>
</svg>

<svg width="100" height="100" viewBox="0 0 100 100" fill="none" xmlns="http://www.w3.org/2000/svg">
<path d="M93 19H7C5.9 19 5 19.9 5 21V79C5 79 5 79 5 79.1C5 79.2 5 79.2 5 79.3C5 79.4 5 79.4 5 79.5C5 79.6 5 79.6 5.1 79.7C5.1 79.8 5.1 79.8 5.2 79.9C5.2 80 5.3 80 5.3 80.1C5.3 80.2 5.4 80.2 5.4 80.3C5.4 80.3 5.4 80.3 5.4 80.4C5.4 80.4 5.4 80.4 5.5 80.5L5.6 80.6L5.7 80.7C5.7 80.7 5.8 80.8 5.9 80.8C6 80.8 6 80.9 6.1 80.9C6.2 80.9 6.2 81 6.3 81C6.4 81 6.4 81 6.5 81.1C6.6 81.1 6.6 81.1 6.7 81.1C6.8 81.1 6.8 81.1 6.9 81.1H7H93C93.2 81.1 93.3 81.1 93.4 81.1H93.5C93.6 81.1 93.7 81 93.8 81L93.9 80.9C94 80.9 94.1 80.8 94.1 80.7L94.2 80.6C94.3 80.5 94.3 80.5 94.4 80.4L94.5 80.3C94.5 80.3 94.5 80.3 94.5 80.2C94.5 80.1 94.6 80.1 94.6 80C94.6 80 94.7 79.9 94.7 79.8C94.7 79.7 94.7 79.7 94.8 79.6C94.9 79.5 94.8 79.5 94.9 79.4C94.9 79.3 94.9 79.3 94.9 79.2C94.9 79.1 94.9 79.1 94.9 79C94.9 79 94.9 79 94.9 78.9V21C95 19.9 94.1 19 93 19ZM9 32.1L36 53.5L9 74.9V32.1ZM12.8 77L39.3 56L48.8 63.5C49.2 63.8 49.6 63.9 50 63.9C50.4 63.9 50.9 63.8 51.2 63.5L60.7 56L87.2 77H12.8ZM91 74.9L64 53.5L91 32.1V74.9ZM91 27L89.8 28L50 59.5L10.2 28L9 27V23H91V27Z" fill="white"/>
</svg>
